X: 10
T: MAZURKA DE SAINT-CHARTIER 
M: 3/4
L: 1/8
Q:1/4=120
K:C
|C3/2D/2E3/2 z/2 E3/2C/2|E3/2F/2A3/2 z/2 G3/2 z/2 |A3/2B/2c3/2B/2c3/2d/2
|e3/2d/2c3/2B/2A3/2G/2|
 C3/2D/2E3/2 z/2 E3/2C/2|E3/2F/2A3/2 z/2 G3/2 z/2 |A3/2B/2c3/2B/2c3/2d/2
|e3/2d/2c2c3/2 z/2 |
C3/2D/2E3/2 z/2 E3/2C/2|E3/2F/2A3/2 z/2 G3/2 z/2 |A3/2B/2c3/2B/2c3/2d/2|
e3/2d/2c3/2B/2A3/2G/2|
C3/2D/2E3/2 z/2 E3/2C/2|E3/2F/2A3/2 z/2 G3/2 z/2 |A3/2B/2c3/2B/2c3/2d/2|
e3/2d/2c2c3/2 z/2 |
c3/2B/2A3/2 z/2 A3/2F/2|A3/2B/2G3/2 z/2 G3/2F/2|E3/2F/2G3/2A/2G3/2F/2|E3
/2D/2E3/2 z/2 C3/2 z/2 |
c3/2B/2A3/2 z/2 A3/2F/2|A3/2B/2G3/2 z/2 G3/2F/2|E3/2F/2G3/2A/2G3/2F/2|E3
/2D/2C3/2 z/2 C3/2 z/2 |
c3/2B/2A3/2 z/2 A3/2F/2|A3/2B/2G3/2 z/2 G3/2F/2|E3/2F/2G3/2A/2G3/2F/2|E3
/2D/2E3/2 z/2 C3/2 z/2 |
c3/2B/2A3/2 z/2 A3/2F/2|A3/2B/2G3/2 z/2 G3/2F/2|E3/2F/2G3/2A/2G3/2F/2|E3
/2D/2C3/2 z/2 C3/2|
